X:1
T:The Soldier Maid
M:4/4
L:1/4
K:G
 G| G2 G G| G d B G| G E E D| E2 z| D| G3/2 G/2 G G| G d B G| B3/2 A/2 A G|\
 A2 z| A| A3/2 A/2 A B| A F E D/2D/2| c B c d| B2| B3/2- c/2| c3/2 E/2 E E|\
 D G G G| B3/2 A/2 G F| G2| F3/2 G/2| A3/2 G/2 A B| A- F E3/2 D/2|\
 c3/2 B/2 c d| B2| z B| c3/2 E/2 E E| D G G3/2 G/2| B3/2 A/2 G F| G2 z|\


